X: 12136
T: Evil Fairy, The
R: reel
M: 4/4
K: Gminor
|:ABcd GGGd|e2 dB cBAB|ABcd GGGd|1 ecdF B2 BA:|2 ecdF B2 z2||
|:g2 fe dGGG|Bc A2 AGAB|g2 fe dGGG|1 BcAB FGGF:|2 BcAB G2 z2||

